X:1
T: Biddy's Wedding
C:
R:Jig
Q:180
K:C
M:6/8
L:1/16
c2d2c2 c4c2|c2e2g2 g2e2c2|c2d2c2 c4c2|B2c2d2 d2B2G2|c2d2c2 c4c2|c2e2g2 g2e2c2|f2a2f2 e2g2e2|B2c2d2 d2B2G2|
c2d2c2 c4c2|c2e2g2 g2e2c2|c2d2c2 c4c2|B2c2d2 d2B2G2|c2d2c2 c4c2|c2e2g2 g2e2c2|f2a2f2 e2g2e2|B2c2d2 d2B2G2|
c2d2c2 g4c2|e4c2 g4c2|c2d2c2 g4c2|B2c2d2 d2B2G2|c2d2c2 g2e2c2|e2d2c2 g2e2c2|f2a2f2 e2g2e2|B2c2d2 d2B2G2|
c2d2c2 g4c2|e4c2 g4c2|c2d2c2 g4c2|B2c2d2 d2B2G2|c2d2c2 g2e2c2|e2d2c2 g2e2c2|f2a2f2 e2g2e2|B2c2d2 d2B2G2||
